X:26
T:Breast Knot, The
M:C
L:1/8
B:Thompson's Compleat Collection of 200 Favourite Country Dances, vol. 3 (London, 1773)
Z:Transcribed and edited by Flynn Titford-Mock, 2007
Z:abc's:AK/Fiddler's Companion
K:D
G B2B FA2F | Ee2d c2A2 | GB2B FA2c | d/c/B/A/ dF E2D2 :|
|: fdfd f a2 g/f/ | ecec eg2 f/e/ | fdfd f a2 g/f/ | dA2F E2D2 :|

